X:1
T:Thomas Hastings
T:Bremen
%%score { ( 1 2 ) | ( 3 4 ) }
L:1/8
M:6/4
K:Eb
V:1 treble 
V:2 treble 
V:3 bass 
V:4 bass 
V:1
 E2 | E4 E2 (G2 F2) E2 | F4 F2 A4 F2 | G4 G2 (B2 A2) G2 | c4 F2 F4 F2 | G4 c2 B4 =A2 | B6- B4 GA | %7
 B4 B2 (e2 d2) c2 | B4 B2 B4 GA | B4 B2 (e2 d2) c2 | B4 B2 B4 E2 | c4 c2 (B2 A2) F2 | E6- E4 |] %13
V:2
 B,2 | B,4 B,2 B,4 B,2 | D4 D2 F4 D2 | E4 E2 (G2 F2) E2 | E4 E2 D4 D2 | E4 G2 F4 F2 | F6- F4 EF | %7
 G4 G2 (G2 B2) A2 | G4 F2 G4 EF | G4 G2 (G2 B2) A2 | G4 F2 G4 E2 | E4 E2 D4 D2 | E6- E4 |] %13
V:3
 G,2 | G,4 G,2 (B,2 A,2) G,2 | B,4 B,2 B,4 B,2 | B,4 B,2 B,4 B,2 | A,4 C2 B,4 B,2 | B,4 E2 D4 C2 | %6
 D6- D4 E2 | E4 E2 B,4 E2 | E4 D2 E4 E2 | E4 E2 B,4 E2 | E4 D2 E4 G,2 | A,4 A,2 F,4 A,2 | %12
 G,6- G,4 |] %13
V:4
 E,2 | E,4 E,2 E,4 E,2 | B,,4 B,,2 B,,4 B,,2 | E,4 E,2 E,4 E,2 | A,,4 =A,,2 B,,4 B,,2 | %5
 E,4 C,2 F,4 F,2 | B,,6- B,,4 E,2 | E,4 E,2 E,4 E,2 | E,4 B,,2 E,4 E,2 | E,4 E,2 E,4 E,2 | %10
 E,4 B,,2 E,4 E,2 | A,,4 A,,2 B,,4 B,,2 | E,6- E,4 |] %13

